symbolic/32x32/apps/evnc.svg

<svg xmlns="http://www.w3.org/2000/svg" width="32" height="32" version="1">
 <path style="opacity:0.2" d="M 5,5 C 3.3432144,5.0001657 2.0001657,6.3432144 2,8 v 18 c 1.657e-4,1.656786 1.3432144,2.999834 3,3 H 6 C 7.2727315,28.998906 8.406282,28.19493 8.828125,26.994141 8.8853489,26.997736 8.9426641,26.99969 9,27 h 14 c 0.05737,-0.0016 0.114689,-0.0049 0.171875,-0.0098 C 23.592384,28.192544 24.726243,28.998318 26,29 h 1 c 1.656786,-1.66e-4 2.999834,-1.343214 3,-3 V 8 C 29.999834,6.3432144 28.656786,5.0001657 27,5 H 26 C 24.727268,5.0010944 23.593718,5.8050698 23.171875,7.0058594 23.114651,7.0022644 23.057336,7.0003104 23,7 H 9 C 8.942627,7.00161 8.8853115,7.00487 8.828125,7.00977 8.407604,5.8074348 7.2737482,5.0016768 6,5 Z"/>
 <path style="fill:#37a0f2" d="M 5,4 C 3.3432144,4.0001657 2.0001657,5.3432144 2,7 v 18 c 1.657e-4,1.656786 1.3432144,2.999834 3,3 H 6 C 7.2727315,27.998906 8.406282,27.19493 8.828125,25.994141 8.8853489,25.997736 8.9426641,25.99969 9,26 h 14 c 0.05737,-0.0016 0.114689,-0.0049 0.171875,-0.0098 C 23.592384,27.192544 24.726243,27.998318 26,28 h 1 c 1.656786,-1.66e-4 2.999834,-1.343214 3,-3 V 7 C 29.999834,5.3432144 28.656786,4.0001657 27,4 H 26 C 24.727268,4.0010944 23.593718,4.8050698 23.171875,6.0058594 23.114651,6.0022644 23.057336,6.0003104 23,6 H 9 c -0.057373,0.00161 -0.1146885,0.00487 -0.171875,0.00977 C 8.407604,4.8074348 7.2737482,4.0016768 6,4 Z"/>
 <path opacity=".2" d="m5 8v18h1v-18h-1zm21 0v18h1v-18h-1zm-19 2v14h1v-14h-1zm2 0v14h14v-14h-14zm15 0v14h1v-14h-1zm-14 1h12v12h-12v-12z"/>
 <path fill="#fff" d="m5 7v18h1v-18h-1zm21 0v18h1v-18h-1zm-19 2v14h1v-14h-1zm2 0v14h14v-14h-14zm15 0v14h1v-14h-1zm-14 1h12v12h-12v-12z"/>
 <path style="opacity:0.2;fill:#ffffff" d="M 5 4 C 3.3432144 4.0001657 2.0001657 5.3432144 2 7 L 2 8 C 2.0001657 6.3432144 3.3432144 5.0001657 5 5 L 6 5 C 7.2737482 5.0016768 8.407604 5.8074304 8.828125 7.0097656 C 8.8853115 7.0048656 8.942627 7.00161 9 7 L 23 7 C 23.057336 7.0003104 23.114651 7.0022644 23.171875 7.0058594 C 23.593718 5.8050698 24.727268 5.0010944 26 5 L 27 5 C 28.656786 5.0001657 29.999834 6.3432144 30 8 L 30 7 C 29.999834 5.3432144 28.656786 4.0001657 27 4 L 26 4 C 24.727268 4.0010944 23.593718 4.8050698 23.171875 6.0058594 C 23.114651 6.0022644 23.057336 6.0003104 23 6 L 9 6 C 8.942627 6.00161 8.8853115 6.0048656 8.828125 6.0097656 C 8.407604 4.8074304 7.2737482 4.0016768 6 4 L 5 4 z"/>
</svg>

<svg xmlns="http://www.w3.org/2000/svg" width="32" height="32" version="1"><path style="opacity:.2" d="M5 5a3 3 0 0 0-3 3v18a3 3 0 0 0 3 3h1a3 3 0 0 0 2.828-2.006A3 3 0 0 0 9 27h14a2.99 2.99 0 0 0 .172-.01A3 3 0 0 0 26 29h1a3 3 0 0 0 3-3V8a3 3 0 0 0-3-3h-1a3 3 0 0 0-2.828 2.006A3 3 0 0 0 23 7H9a2.998 2.998 0 0 0-.172.01A3 3 0 0 0 6 5z"/><path style="fill:#37a0f2" d="M5 4a3 3 0 0 0-3 3v18a3 3 0 0 0 3 3h1a3 3 0 0 0 2.828-2.006A3 3 0 0 0 9 26h14a2.99 2.99 0 0 0 .172-.01A3 3 0 0 0 26 28h1a3 3 0 0 0 3-3V7a3 3 0 0 0-3-3h-1a3 3 0 0 0-2.828 2.006A3 3 0 0 0 23 6H9a2.998 2.998 0 0 0-.172.01A3 3 0 0 0 6 4z"/><path opacity=".2" d="M5 8v18h1V8H5zm21 0v18h1V8h-1zM7 10v14h1V10H7zm2 0v14h14V10H9zm15 0v14h1V10h-1zm-14 1h12v12H10V11z"/><path fill="#fff" d="M5 7v18h1V7H5zm21 0v18h1V7h-1zM7 9v14h1V9H7zm2 0v14h14V9H9zm15 0v14h1V9h-1zm-14 1h12v12H10V10z"/><path style="opacity:.2;fill:#fff" d="M5 4a3 3 0 0 0-3 3v1a3 3 0 0 1 3-3h1a3 3 0 0 1 2.828 2.01c.057-.005.115-.008.172-.01h14a3 3 0 0 1 .172.006A3 3 0 0 1 26 5h1a3 3 0 0 1 3 3V7a3 3 0 0 0-3-3h-1a3 3 0 0 0-2.828 2.006A3 3 0 0 0 23 6H9a2.998 2.998 0 0 0-.172.01A3 3 0 0 0 6 4H5z"/></svg>
